src/32x32/places/folder-gruvbox-mix-purple-backup.svg

<svg xmlns="http://www.w3.org/2000/svg" width="32" height="32" version="1">
 <rect style="opacity:0.2" width="28" height="18" x="2" y="11" rx="1.4" ry="1.4"/>
 <path style="fill:#924f79" d="M 2,22.6 C 2,23.376 2.6244,24 3.4,24 H 28.6 C 29.376,24 30,23.376 30,22.6 V 7.4 C 30,6.6244 29.376,6 28.6,6 H 16 C 13.9,6 13.2,3 11.1,3 H 3.4 C 2.6244,3 2,3.6244 2,4.4"/>
 <rect style="opacity:0.2" width="28" height="18" x="2" y="9" rx="1.4" ry="1.4"/>
 <rect style="fill:#E6DCBB" width="24" height="11" x="4" y="8" rx="1.4" ry="1.4"/>
 <rect style="fill:#d3869b" width="28" height="18" x="2" y="10" rx="1.4" ry="1.4"/>
 <path style="opacity:0.1;fill:#E6DCBB" d="M 3.4004,3 C 2.6248,3 2,3.6248 2,4.4004 V 5.4004 C 2,4.6248 2.6248,4 3.4004,4 H 11.1 C 13.2,4 13.9,7 16,7 H 28.6 C 29.375,7 30,7.6248 30,8.4004 V 7.4004 C 30,6.6248 29.375,6 28.6,6 H 16 C 13.9,6 13.2,3 11.1,3 Z"/>
 <path style="fill:#423B3A" d="m15.607422 13.011719c-0.33596 0.021972-0.67371 0.073469-1.009766 0.154297-2.688447 0.646633-4.594183 3.061061-4.597656 5.826172a1.0001 1.0001 0 0 0 0 0.007812h-1l2 2 2-2h-1a1.0001 1.0001 0 0 0 0 -0.005859c0.0023-1.852241 1.263577-3.449661 3.064453-3.882813 1.800879-0.433152 3.651746 0.41586 4.496094 2.064453 0.844348 1.648592 0.452744 3.647246-0.951172 4.855469-1.381932 1.189304-3.520755 1.236987-5.025391 0.15625a1.0005966 1.0005966 0 0 0 -1.167968 1.625c2.245578 1.612935 5.380223 1.556995 7.498046-0.265625 2.095842-1.803701 2.68627-4.820142 1.425782-7.28125-0.945366-1.845831-2.75319-3.030673-4.732422-3.234375-0.329872-0.03395-0.664041-0.041503-1-0.019531zm0.376953 2.974609a1.0001 1.0001 0 0 0 -0.984375 1.013672v2a1.0001 1.0001 0 0 0 0.292969 0.707031l1 1a1.0001 1.0001 0 1 0 1.414062 -1.414062l-0.707031-0.707031v-1.585938a1.0001 1.0001 0 0 0 -1.015625 -1.013672z"/>
</svg>

<?xml version="1.0" encoding="UTF-8"?>
<svg width="32" height="32" version="1" xmlns="http://www.w3.org/2000/svg">
 <rect x="2" y="11" width="28" height="18" rx="1.4" ry="1.4" opacity=".2"/>
 <path d="m2 22.6c0 0.776 0.6244 1.4 1.4 1.4h25.2c0.776 0 1.4-0.624 1.4-1.4v-15.2c0-0.7756-0.624-1.4-1.4-1.4h-12.6c-2.1 0-2.8-3-4.9-3h-7.7c-0.7756 0-1.4 0.6244-1.4 1.4" fill="#924f79"/>
 <rect x="2" y="9" width="28" height="18" rx="1.4" ry="1.4" opacity=".2"/>
 <rect x="4" y="8" width="24" height="11" rx="1.4" ry="1.4" fill="#E6DCBB"/>
 <rect x="2" y="10" width="28" height="18" rx="1.4" ry="1.4" fill="#d3869b"/>
 <path d="m3.4004 3c-0.7756 0-1.4004 0.6248-1.4004 1.4004v1c0-0.7756 0.6248-1.4004 1.4004-1.4004h7.6996c2.1 0 2.8 3 4.9 3h12.6c0.775 0 1.4 0.6248 1.4 1.4004v-1c0-0.7756-0.625-1.4004-1.4-1.4004h-12.6c-2.1 0-2.8-3-4.9-3z" fill="#E6DCBB" opacity=".1"/>
 <path d="m15.607 13.012c-0.33596 0.021972-0.67371 0.073469-1.0098 0.1543-2.6884 0.64663-4.5942 3.0611-4.5977 5.8262a1.0001 1.0001 0 0 0 0 0.007812h-1l2 2 2-2h-1a1.0001 1.0001 0 0 0 0-0.005859c0.0023-1.8522 1.2636-3.4497 3.0645-3.8828 1.8009-0.43315 3.6517 0.41586 4.4961 2.0645 0.84435 1.6486 0.45274 3.6472-0.95117 4.8555-1.3819 1.1893-3.5208 1.237-5.0254 0.15625a1.0006 1.0006 0 0 0-1.168 1.625c2.2456 1.6129 5.3802 1.557 7.498-0.26562 2.0958-1.8037 2.6863-4.8201 1.4258-7.2812-0.94537-1.8458-2.7532-3.0307-4.7324-3.2344-0.32987-0.03395-0.66404-0.041503-1-0.019531zm0.37695 2.9746a1.0001 1.0001 0 0 0-0.98438 1.0137v2a1.0001 1.0001 0 0 0 0.29297 0.70703l1 1a1.0001 1.0001 0 1 0 1.4141-1.4141l-0.70703-0.70703v-1.5859a1.0001 1.0001 0 0 0-1.0156-1.0137z" fill="#423B3A"/>
</svg>
